public/icons/expertise_icon.svg

<svg width="36" height="36" viewBox="0 0 36 36" fill="none" xmlns="http://www.w3.org/2000/svg">
<path d="M18.0013 9.60091C17.0808 9.60091 16.3346 8.85472 16.3346 7.93424C16.3346 7.01377 17.0808 6.26758 18.0013 6.26758C18.9218 6.26758 19.668 7.01377 19.668 7.93424C19.668 8.85472 18.9218 9.60091 18.0013 9.60091Z" fill="white"/>
<path fill-rule="evenodd" clip-rule="evenodd" d="M0.0846329 11.3329V9.12793C0.084568 8.54497 0.259193 7.97537 0.585979 7.49262C0.912766 7.00987 1.37672 6.63612 1.91797 6.41959L16.918 0.419591C17.6134 0.141386 18.3892 0.141386 19.0846 0.419591L34.0846 6.41959C34.6259 6.63612 35.0898 7.00987 35.4166 7.49262C35.7434 7.97537 35.918 8.54497 35.918 9.12793V11.3329C35.918 12.9446 34.6113 14.2496 33.0013 14.2496H3.0013C2.61828 14.2496 2.23901 14.1741 1.88514 14.0276C1.53127 13.881 1.20974 13.6662 0.938908 13.3953C0.668068 13.1245 0.453228 12.803 0.306652 12.4491C0.160076 12.0952 0.0846329 11.7159 0.0846329 11.3329ZM2.58463 9.12793V11.3329C2.58463 11.4434 2.62853 11.5494 2.70667 11.6276C2.78481 11.7057 2.89079 11.7496 3.0013 11.7496H33.0013C33.1118 11.7496 33.2178 11.7057 33.2959 11.6276C33.3741 11.5494 33.418 11.4434 33.418 11.3329V9.12793C33.4179 9.04471 33.393 8.96341 33.3464 8.8945C33.2997 8.82559 33.2335 8.77221 33.1563 8.74126L18.1563 2.74126C18.0568 2.70139 17.9458 2.70139 17.8463 2.74126L2.8463 8.74126C2.76906 8.77221 2.70286 8.82559 2.65622 8.8945C2.60959 8.96341 2.58465 9.04471 2.58463 9.12793ZM0.436302 33.2613L1.45464 29.6979C1.62854 29.0886 1.99624 28.5525 2.50208 28.1709C3.00791 27.7893 3.62432 27.5829 4.25797 27.5829H31.7446C33.0463 27.5829 34.1913 28.4463 34.548 29.6979L35.5663 33.2613C35.6548 33.5713 35.6701 33.8976 35.611 34.2146C35.552 34.5315 35.4202 34.8304 35.226 35.0878C35.0318 35.3451 34.7805 35.5539 34.4919 35.6977C34.2034 35.8414 33.8854 35.9163 33.563 35.9163H2.43963C2.11723 35.9163 1.79924 35.8414 1.51067 35.6977C1.2221 35.5539 0.970825 35.3451 0.776638 35.0878C0.582451 34.8304 0.450642 34.5315 0.391582 34.2146C0.332527 33.8976 0.347836 33.5713 0.436302 33.2613ZM2.9913 33.4163H33.0113L32.1446 30.3846C32.1197 30.2977 32.0672 30.2213 31.995 30.1669C31.9229 30.1125 31.835 30.083 31.7446 30.0829H4.25797C4.1676 30.083 4.07971 30.1125 4.00756 30.1669C3.93541 30.2213 3.88291 30.2977 3.85797 30.3846L2.9913 33.4163Z" fill="white"/>
<path fill-rule="evenodd" clip-rule="evenodd" d="M3.41927 28.8333V13C3.41927 12.6685 3.55096 12.3505 3.78539 12.1161C4.01981 11.8817 4.33775 11.75 4.66927 11.75C5.00079 11.75 5.31873 11.8817 5.55315 12.1161C5.78757 12.3505 5.91927 12.6685 5.91927 13V28.8333C5.91927 29.1649 5.78757 29.4828 5.55315 29.7172C5.31873 29.9516 5.00079 30.0833 4.66927 30.0833C4.33775 30.0833 4.01981 29.9516 3.78539 29.7172C3.55096 29.4828 3.41927 29.1649 3.41927 28.8333ZM10.9193 28.8333V13C10.9193 12.6685 11.051 12.3505 11.2854 12.1161C11.5198 11.8817 11.8377 11.75 12.1693 11.75C12.5008 11.75 12.8187 11.8817 13.0532 12.1161C13.2876 12.3505 13.4193 12.6685 13.4193 13V28.8333C13.4193 29.1649 13.2876 29.4828 13.0532 29.7172C12.8187 29.9516 12.5008 30.0833 12.1693 30.0833C11.8377 30.0833 11.5198 29.9516 11.2854 29.7172C11.051 29.4828 10.9193 29.1649 10.9193 28.8333ZM22.5859 28.8333V13C22.5859 12.6685 22.7176 12.3505 22.9521 12.1161C23.1865 11.8817 23.5044 11.75 23.8359 11.75C24.1675 11.75 24.4854 11.8817 24.7198 12.1161C24.9542 12.3505 25.0859 12.6685 25.0859 13V28.8333C25.0859 29.1649 24.9542 29.4828 24.7198 29.7172C24.4854 29.9516 24.1675 30.0833 23.8359 30.0833C23.5044 30.0833 23.1865 29.9516 22.9521 29.7172C22.7176 29.4828 22.5859 29.1649 22.5859 28.8333ZM30.0859 28.8333V13C30.0859 12.6685 30.2176 12.3505 30.4521 12.1161C30.6865 11.8817 31.0044 11.75 31.3359 11.75C31.6675 11.75 31.9854 11.8817 32.2198 12.1161C32.4542 12.3505 32.5859 12.6685 32.5859 13V28.8333C32.5859 29.1649 32.4542 29.4828 32.2198 29.7172C31.9854 29.9516 31.6675 30.0833 31.3359 30.0833C31.0044 30.0833 30.6865 29.9516 30.4521 29.7172C30.2176 29.4828 30.0859 29.1649 30.0859 28.8333Z" fill="white"/>
</svg>

<svg xmlns="http://www.w3.org/2000/svg" width="36" height="36" fill="none"><path fill="#fff" d="M18.001 9.6a1.667 1.667 0 1 1 0-3.332 1.667 1.667 0 0 1 0 3.333Z"/><path fill="#fff" fill-rule="evenodd" d="M.085 11.333V9.128A2.917 2.917 0 0 1 1.918 6.42l15-6a2.916 2.916 0 0 1 2.167 0l15 6a2.917 2.917 0 0 1 1.833 2.708v2.205a2.917 2.917 0 0 1-2.917 2.917h-30a2.918 2.918 0 0 1-2.916-2.917Zm2.5-2.205v2.205A.417.417 0 0 0 3 11.75h30a.417.417 0 0 0 .417-.417V9.128a.418.418 0 0 0-.262-.387l-15-6a.417.417 0 0 0-.31 0l-15 6a.417.417 0 0 0-.261.387ZM.436 33.26l1.019-3.563a2.915 2.915 0 0 1 2.803-2.115h27.487c1.301 0 2.446.863 2.803 2.115l1.018 3.563a2.082 2.082 0 0 1-2.003 2.655H2.44A2.084 2.084 0 0 1 .436 33.26Zm2.555.155h30.02l-.866-3.031a.416.416 0 0 0-.4-.302H4.258a.417.417 0 0 0-.4.302l-.867 3.031Z" clip-rule="evenodd"/><path fill="#fff" fill-rule="evenodd" d="M3.42 28.833V13a1.25 1.25 0 1 1 2.5 0v15.833a1.25 1.25 0 1 1-2.5 0Zm7.5 0V13a1.25 1.25 0 0 1 2.5 0v15.833a1.25 1.25 0 1 1-2.5 0Zm11.666 0V13a1.25 1.25 0 1 1 2.5 0v15.833a1.25 1.25 0 1 1-2.5 0Zm7.5 0V13a1.25 1.25 0 1 1 2.5 0v15.833a1.25 1.25 0 1 1-2.5 0Z" clip-rule="evenodd"/></svg>
